img/footer/footer-inst.svg

<svg width="21" height="21" viewBox="0 0 21 21" fill="none" xmlns="http://www.w3.org/2000/svg">
<g clip-path="url(#clip0)">
<path d="M20.9797 6.17406C20.9305 5.05825 20.75 4.29114 20.4916 3.62643C20.2249 2.92085 19.8147 2.28915 19.2772 1.76402C18.7521 1.23071 18.1162 0.816306 17.4188 0.553819C16.7502 0.295338 15.9871 0.114898 14.8713 0.0657019C13.7472 0.0123391 13.3903 0 10.5392 0C7.68802 0 7.33114 0.0123391 6.21117 0.0615355C5.09536 0.110732 4.32825 0.291332 3.66369 0.549653C2.95796 0.816306 2.32626 1.22654 1.80113 1.76402C1.26782 2.28915 0.853576 2.92502 0.590928 3.62242C0.332447 4.29114 0.152008 5.05408 0.102811 6.16989C0.0494485 7.29403 0.0371094 7.65091 0.0371094 10.5021C0.0371094 13.3532 0.0494485 13.7101 0.0986448 14.83C0.147841 15.9459 0.328441 16.713 0.586922 17.3777C0.853576 18.0833 1.26782 18.715 1.80113 19.2401C2.32626 19.7734 2.96213 20.1878 3.65953 20.4503C4.32825 20.7088 5.09119 20.8892 6.20716 20.9384C7.32698 20.9878 7.68401 20.9999 10.5352 20.9999C13.3863 20.9999 13.7432 20.9878 14.8631 20.9384C15.979 20.8892 16.7461 20.7088 17.4106 20.4503C18.8219 19.9046 19.9377 18.7888 20.4834 17.3777C20.7417 16.709 20.9223 15.9459 20.9715 14.83C21.0207 13.7101 21.033 13.3532 21.033 10.5021C21.033 7.65091 21.0289 7.29403 20.9797 6.17406ZM19.0886 14.748C19.0434 15.7736 18.8711 16.3274 18.7275 16.6966C18.3747 17.6115 17.6486 18.3376 16.7337 18.6904C16.3645 18.834 15.8067 19.0063 14.7851 19.0513C13.6775 19.1007 13.3453 19.1128 10.5433 19.1128C7.74138 19.1128 7.40502 19.1007 6.30139 19.0513C5.2758 19.0063 4.72198 18.834 4.35276 18.6904C3.8975 18.5222 3.48309 18.2555 3.14673 17.9068C2.79803 17.5663 2.53138 17.1561 2.36312 16.7008C2.21953 16.3316 2.04727 15.7736 2.00224 14.7522C1.95288 13.6445 1.9407 13.3122 1.9407 10.5102C1.9407 7.70828 1.95288 7.37192 2.00224 6.26844C2.04727 5.24285 2.21953 4.68903 2.36312 4.31982C2.53138 3.86439 2.79803 3.45015 3.1509 3.11363C3.49127 2.76493 3.9015 2.49828 4.35693 2.33017C4.72614 2.18659 5.28413 2.01432 6.30555 1.96913C7.41319 1.91994 7.74555 1.9076 10.5473 1.9076C13.3534 1.9076 13.6856 1.91994 14.7893 1.96913C15.8149 2.01432 16.3687 2.18659 16.7379 2.33017C17.1932 2.49828 17.6076 2.76493 17.9439 3.11363C18.2926 3.45416 18.5593 3.86439 18.7275 4.31982C18.8711 4.68903 19.0434 5.24686 19.0886 6.26844C19.1378 7.37608 19.1501 7.70828 19.1501 10.5102C19.1501 13.3122 19.1378 13.6404 19.0886 14.748Z" fill="#313131"/>
<path d="M10.5391 5.10742C7.56092 5.10742 5.14453 7.52365 5.14453 10.502C5.14453 13.4804 7.56092 15.8966 10.5391 15.8966C13.5175 15.8966 15.9337 13.4804 15.9337 10.502C15.9337 7.52365 13.5175 5.10742 10.5391 5.10742ZM10.5391 14.0014C8.60702 14.0014 7.03979 12.4343 7.03979 10.502C7.03979 8.56975 8.60702 7.00268 10.5391 7.00268C12.4714 7.00268 14.0385 8.56975 14.0385 10.502C14.0385 12.4343 12.4714 14.0014 10.5391 14.0014Z" fill="#313131"/>
<path d="M17.4057 4.89416C17.4057 5.58964 16.8418 6.15355 16.1461 6.15355C15.4506 6.15355 14.8867 5.58964 14.8867 4.89416C14.8867 4.19852 15.4506 3.63477 16.1461 3.63477C16.8418 3.63477 17.4057 4.19852 17.4057 4.89416Z" fill="#313131"/>
</g>
<defs>
<clipPath id="clip0">
<rect width="21" height="21" fill="white"/>
</clipPath>
</defs>
</svg>

<svg width="21" height="21" fill="none" xmlns="http://www.w3.org/2000/svg"><g clip-path="url(#clip0)" fill="#313131"><path d="M20.98 6.174c-.05-1.116-.23-1.883-.488-2.548a5.125 5.125 0 00-1.215-1.862A5.168 5.168 0 0017.42.554C16.75.295 15.987.114 14.87.066 13.747.012 13.391 0 10.54 0 7.688 0 7.331.012 6.211.062 5.095.11 4.328.292 3.664.55A5.124 5.124 0 001.8 1.764a5.17 5.17 0 00-1.21 1.858C.332 4.292.152 5.054.103 6.17.049 7.294.037 7.65.037 10.502c0 2.851.012 3.208.062 4.328.049 1.116.23 1.883.488 2.548.267.705.68 1.337 1.214 1.862a5.168 5.168 0 001.859 1.21c.668.259 1.431.44 2.547.488 1.12.05 1.477.062 4.328.062s3.208-.012 4.328-.062c1.116-.049 1.883-.23 2.548-.488a5.372 5.372 0 003.072-3.072c.259-.669.44-1.432.488-2.548.05-1.12.062-1.477.062-4.328s-.004-3.208-.053-4.328zm-1.891 8.574c-.046 1.026-.218 1.58-.361 1.949a3.483 3.483 0 01-1.994 1.993c-.37.144-.927.316-1.949.361-1.107.05-1.44.062-4.242.062s-3.138-.012-4.242-.062c-1.025-.045-1.579-.217-1.948-.36a3.23 3.23 0 01-1.206-.784 3.264 3.264 0 01-.784-1.206c-.143-.37-.316-.927-.36-1.949-.05-1.107-.062-1.44-.062-4.242s.012-3.138.061-4.242c.045-1.025.218-1.579.361-1.948.168-.456.435-.87.788-1.206a3.26 3.26 0 011.206-.784c.37-.143.927-.316 1.949-.36 1.107-.05 1.44-.062 4.241-.062 2.806 0 3.139.012 4.242.061 1.026.045 1.58.218 1.949.361.455.168.87.435 1.206.784.349.34.615.75.784 1.206.143.369.315.927.36 1.948.05 1.108.062 1.44.062 4.242s-.012 3.13-.061 4.238z"/><path d="M10.54 5.107a5.396 5.396 0 00-5.395 5.395 5.396 5.396 0 105.395-5.395zm0 8.894a3.5 3.5 0 110-7 3.5 3.5 0 010 7zM17.406 4.894a1.26 1.26 0 11-2.52 0 1.26 1.26 0 012.52 0z"/></g><defs><clipPath id="clip0"><path fill="#fff" d="M0 0h21v21H0z"/></clipPath></defs></svg>
